X: 17122
T: Heilan' Donald Kissed Kitty
R: strathspey
M: 4/4
K: Gmajor
B<G G>A B>A B<g|B<G G>A B<d A>c|B<G G>A B>A B<d|e<g d>g B>g A>c:|
|:B<d du(e/f/ .g)>ud e>c|B<d d>e g>B A>c|B<d du(e/f/ .g)>ud e<d|e<g d>g B>g A>c:|

